svgs/sharp-regular/crop-simple.svg

<svg xmlns="http://www.w3.org/2000/svg" viewBox="0 0 512 512"><!--! Font Awesome Pro 6.6.0 by @fontawesome - https://fontawesome.com License - https://fontawesome.com/license (Commercial License) Copyright 2024 Fonticons, Inc. --><path d="M128 24l0-24L80 0l0 24 0 56L24 80 0 80l0 48 24 0 56 0 0 280 0 24 24 0 224 0 24 0 0-48-24 0-200 0 0-360zM384 488l0 24 48 0 0-24 0-56 56 0 24 0 0-48-24 0-56 0 0-280 0-24-24 0L160 80l0 48 224 0 0 360z"/></svg>

<svg xmlns="http://www.w3.org/2000/svg" viewBox="0 0 512 512"><!--! Font Awesome Pro 6.4.0 by @fontawesome - https://fontawesome.com License - https://fontawesome.com/license (Commercial License) Copyright 2023 Fonticons, Inc. --><path d="M128 24V0H80V24 80H24 0v48H24 80V408v24h24H328h24V384H328 128V24zM384 488v24h48V488 432h56 24V384H488 432l0-280V80H408L160 80v48l224 0 0 360z"/></svg>
